X: 15313
T: Girls Of The Town
R: jig
M: 6/8
K: Gmajor
|:D|GED G2A|Bge dBA|GED G2A|BGB AFD|
GED G2A|Bge dBA|GEE BAB|GEE E2:|
|:f|g3 fed|(3efg e dBA|gfe afd|Bee e2f|
g3 fed|(3efg e dBA|GEE BAB|GEE E2:|

